svgs/light/arrows-retweet.svg

<svg xmlns="http://www.w3.org/2000/svg" viewBox="0 0 640 512"><!-- Font Awesome Pro 6.0.0-alpha2 by @fontawesome - https://fontawesome.com License - https://fontawesome.com/license (Commercial License) --><path d="M336 368H144V118.625L228.687 203.312C231.812 206.438 235.906 208 240 208S248.188 206.438 251.312 203.312C257.562 197.062 257.562 186.937 251.312 180.688L139.312 68.688C133.062 62.438 122.937 62.438 116.687 68.688L4.688 180.688C-1.563 186.938 -1.563 197.063 4.688 203.312S21.063 209.562 27.312 203.312L112 118.625V384C112 392.844 119.156 400 128 400H336C344.844 400 352 392.844 352 384S344.844 368 336 368ZM635.312 308.688C629.062 302.438 618.937 302.438 612.688 308.688L528 393.375V128C528 119.156 520.844 112 512 112H304C295.156 112 288 119.156 288 128S295.156 144 304 144H496V393.375L411.312 308.688C405.062 302.438 394.937 302.438 388.688 308.688S382.438 325.063 388.688 331.312L500.688 443.312C503.812 446.438 507.906 448 512 448S520.188 446.438 523.312 443.312L635.312 331.312C641.562 325.062 641.562 314.938 635.312 308.688Z"/></svg>

<svg xmlns="http://www.w3.org/2000/svg" viewBox="0 0 640 512"><!--! Font Awesome Pro 6.3.0 by @fontawesome - https://fontawesome.com License - https://fontawesome.com/license (Commercial License) Copyright 2023 Fonticons, Inc. --><path d="M336 368h-192V118.6l84.69 84.69C231.8 206.4 235.9 208 240 208s8.188-1.562 11.31-4.688c6.25-6.25 6.25-16.38 0-22.62l-112-112c-6.25-6.25-16.38-6.25-22.62 0l-112 112c-6.25 6.25-6.25 16.38 0 22.62s16.38 6.25 22.62 0L112 118.6V384c0 8.844 7.156 16 16 16h208c8.844 0 16-7.156 16-16S344.8 368 336 368zM635.3 308.7c-6.25-6.25-16.38-6.25-22.62 0L528 393.4V128c0-8.844-7.156-16-16-16H304C295.2 112 288 119.2 288 128s7.156 16 16 16h192v249.4l-84.69-84.69c-6.25-6.25-16.38-6.25-22.62 0s-6.25 16.38 0 22.62l112 112C503.8 446.4 507.9 448 512 448s8.187-1.562 11.31-4.688l112-112C641.6 325.1 641.6 314.9 635.3 308.7z"/></svg>
